X:49
T:All 65 Pounds of It
R:march
C: 1983, 2010 L.E. McCullough  
M:4/4
L:1/8
K:G
|:gdBd gage|fdAd fgf=f|ecGc edce|dedc B2ef|
gdBd gage|fdAd ~f3=f|eceg fdba|1 gdBd G2 ef:|2 gdBd G2AB|]
|:cBcd ecag|fgag fdfa|bagf gef=f|ecGc e2 f2|
~g3a bdgb|agfe d2 ^c2|cGce fdba|1 gdBd G2AB:|2 gdBd G2 ef|] 
<end>
<start>
